X: 356
T: Nesho (Xhimixhi)
O: Albania
Z: Birgitt Karlson
Z: http://www-linux.gsi.de/~karlson/index_e.htm
M: 12/8
L: 1/8
K: Dmix
|:"D"AAA ABAG F2 E ED|F2E EDDD "G"G3-GF|\
"D"AAA ABAG F2E ED|"A"F2E ED ^CE D3-D2:|
|:z3 "D"D2 D2 "G"G3 GF|G2F E2D2 "A"E3-E2|\
"D"A A2 A2 F2 E2D E2|F3 E3D "G"G3-GF|\
"D"A A2 A2 F2 E2D E2|"A"F2E E3D D3-D2:|



